src/assets/img/icons/dark/icon-different-graph.svg

<svg width="36" height="42" viewBox="0 0 36 42" fill="none" xmlns="http://www.w3.org/2000/svg">
<path d="M7.17188 32.1596V9.84039C7.17188 5.31177 10.8341 1.64062 15.3517 1.64062H10.3711C5.84059 1.64062 2.16797 5.31325 2.16797 9.84375V32.1562C2.16797 36.6867 5.84059 40.3594 10.3711 40.3594H15.3517C10.8341 40.3594 7.17188 36.6882 7.17188 32.1596Z" fill="#565656"/>
<path d="M25.5469 42H10.4531C5.02528 42 0.609375 37.5841 0.609375 32.1562V9.84375C0.609375 4.41591 5.02528 0 10.4531 0H25.5469C30.9747 0 35.3906 4.41591 35.3906 9.84375V32.1562C35.3906 37.5841 30.9747 42 25.5469 42ZM10.4531 3.28125C6.83456 3.28125 3.89062 6.22519 3.89062 9.84375V32.1562C3.89062 35.7748 6.83456 38.7188 10.4531 38.7188H25.5469C29.1654 38.7188 32.1094 35.7748 32.1094 32.1562V9.84375C32.1094 6.22519 29.1654 3.28125 25.5469 3.28125H10.4531ZM28.7461 15.0938C28.7461 14.1876 28.0116 13.4531 27.1055 13.4531H24.3164C22.9594 13.4531 21.8555 12.3491 21.8555 10.9922V8.20312C21.8555 7.29701 21.121 6.5625 20.2148 6.5625C19.3087 6.5625 18.5742 7.29701 18.5742 8.20312V10.9922C18.5742 14.1584 21.1502 16.7344 24.3164 16.7344H27.1055C28.0116 16.7344 28.7461 15.9999 28.7461 15.0938ZM22.7578 32.5664V23.707C22.7578 22.8009 22.0233 22.0664 21.1172 22.0664C20.2111 22.0664 19.4766 22.8009 19.4766 23.707V32.5664C19.4766 33.4725 20.2111 34.207 21.1172 34.207C22.0233 34.207 22.7578 33.4725 22.7578 32.5664ZM28.8281 32.5664V28.6289C28.8281 27.7228 28.0936 26.9883 27.1875 26.9883C26.2814 26.9883 25.5469 27.7228 25.5469 28.6289V32.5664C25.5469 33.4725 26.2814 34.207 27.1875 34.207C28.0936 34.207 28.8281 33.4725 28.8281 32.5664ZM10.4531 32.5664V26.168C10.4531 25.2619 9.71862 24.5273 8.8125 24.5273C7.90638 24.5273 7.17188 25.2619 7.17188 26.168V32.5664C7.17188 33.4725 7.90638 34.207 8.8125 34.207C9.71862 34.207 10.4531 33.4725 10.4531 32.5664Z" fill="white"/>
<path d="M14.9648 34.207C14.0587 34.207 13.3242 33.4725 13.3242 32.5664V18.7852C13.3242 17.879 14.0587 17.1445 14.9648 17.1445C15.871 17.1445 16.6055 17.879 16.6055 18.7852V32.5664C16.6055 33.4725 15.871 34.207 14.9648 34.207Z" fill="#D34214"/>
</svg>

<svg xmlns="http://www.w3.org/2000/svg" width="36" height="42" fill="none"><path fill="#565656" d="M7.17 32.16V9.84c0-4.53 3.66-8.2 8.18-8.2h-4.98a8.2 8.2 0 00-8.2 8.2v22.32a8.2 8.2 0 008.2 8.2h4.98a8.19 8.19 0 01-8.18-8.2z"/><path fill="#fff" d="M25.55 42h-15.1a9.85 9.85 0 01-9.84-9.84V9.84A9.85 9.85 0 0110.45 0h15.1a9.85 9.85 0 019.84 9.84v22.32A9.85 9.85 0 0125.55 42zM10.45 3.28A6.57 6.57 0 003.9 9.84v22.32a6.57 6.57 0 006.56 6.56h15.1a6.57 6.57 0 006.56-6.56V9.84a6.57 6.57 0 00-6.56-6.56h-15.1zm18.3 11.81c0-.9-.74-1.64-1.64-1.64h-2.8A2.46 2.46 0 0121.87 11V8.2a1.64 1.64 0 10-3.29 0V11a5.75 5.75 0 005.75 5.73h2.79c.9 0 1.64-.73 1.64-1.64zm-6 17.48V23.7a1.64 1.64 0 10-3.27 0v8.86a1.64 1.64 0 103.28 0zm6.08 0v-3.94a1.64 1.64 0 10-3.28 0v3.94a1.64 1.64 0 103.28 0zm-18.38 0v-6.4a1.64 1.64 0 10-3.28 0v6.4a1.64 1.64 0 103.28 0z"/><path fill="#D34214" d="M14.96 34.2c-.9 0-1.64-.73-1.64-1.63V18.79a1.64 1.64 0 113.29 0v13.78c0 .9-.74 1.64-1.65 1.64z"/></svg>
